Adwaita++/apps/scalable/gitlab.svg

<svg height="128" width="128" xmlns="http://www.w3.org/2000/svg">
  <g fill-rule="evenodd" transform="translate(0 -172)">
    <path d="m26.421875 181.46094c-.916494.00007-1.833544.52649-2.175781 1.58008l-13.306641 40.95703-6.7148436 20.66601c-.612425 1.88474.058713 3.94847 1.6621094 5.11328l58.1132812 42.22266 58.11328-42.22266c1.60343-1.16481 2.27453-3.22854 1.66211-5.11328l-6.71484-20.66601-13.30664-40.95703c-.68447-2.10718-3.66514-2.10775-4.349613 0l-13.308594 40.95703h-44.191406l-13.308594-40.95703c-.342238-1.05388-1.257334-1.58015-2.173828-1.58008z" fill="#060505" opacity=".2"/>
    <path d="m63.999971 289.99995 22.095343-68.00208h-44.190687z" fill="#e01b24"/>
    <path d="m63.999971 289.99983-22.095344-68.00208h-30.966075z" fill="#ff7800"/>
    <path d="m10.938609 221.99792-6.7143763 20.66521c-.612425 1.88474.05833 3.9496 1.661726 5.11441l58.1140693 42.22246z" fill="#f5c211"/>
    <path d="m10.938609 221.99798h30.966075l-13.308098-40.95701c-.684476-2.10775-3.665975-2.10718-4.35045 0z" fill="#e01b24"/>
    <path d="m63.999971 289.99983 22.095343-68.00208h30.966076z" fill="#ff7800"/>
    <path d="m117.06139 221.99792 6.71438 20.66521c.61242 1.88474-.0583 3.9496-1.66173 5.11441l-58.114069 42.22246z" fill="#f5c211"/>
    <path d="m117.06139 221.99798h-30.966076l13.308099-40.95701c.684477-2.10775 3.665977-2.10718 4.350447 0z" fill="#e01b24"/>
  </g>
</svg>

<svg xmlns="http://www.w3.org/2000/svg" xmlns:xlink="http://www.w3.org/1999/xlink" width="128" height="128" version="1.0">
 <defs>
  <linearGradient id="a">
   <stop id="stop2" offset="0" stop-color="#68676b"/>
   <stop id="stop4" offset=".8" stop-color="#424048"/>
   <stop id="stop6" offset="1" stop-color="#241f31"/>
  </linearGradient>
  <radialGradient id="d" cx="279.422" cy="446.483" r="224" fx="279.422" fy="446.483" gradientTransform="matrix(1.34416 .0006 -.00062 1.38763 -121.22 -718.103)" gradientUnits="userSpaceOnUse" xlink:href="#a"/>
  <linearGradient id="e" x1="43.844" x2="-60" y1="234" y2="234" gradientTransform="matrix(1.0015 0 0 .99993 72.09 56.015)" gradientUnits="userSpaceOnUse" xlink:href="#b"/>
  <linearGradient id="b">
   <stop id="stop11" offset="0" stop-color="#d5d3cf"/>
   <stop id="stop13" offset=".038" stop-color="#e3e2df"/>
   <stop id="stop15" offset=".077" stop-color="#c0bfbc"/>
   <stop id="stop17" offset=".923" stop-color="#c0bfbc"/>
   <stop id="stop19" offset=".962" stop-color="#e3e2df"/>
   <stop id="stop21" offset="1" stop-color="#d5d3cf"/>
  </linearGradient>
 </defs>
 <g transform="translate(0 -172)">
  <path style="fill:#060505;fill-rule:evenodd;opacity:0.2" d="m 26.421875,181.46094 c -0.916494,7e-5 -1.833544,0.52649 -2.175781,1.58008 l -13.306641,40.95703 -6.7148436,20.66601 c -0.612425,1.88474 0.058713,3.94847 1.6621094,5.11328 L 64,292 122.11328,249.77734 c 1.60343,-1.16481 2.27453,-3.22854 1.66211,-5.11328 l -6.71484,-20.66601 -13.30664,-40.95703 c -0.68447,-2.10718 -3.66514,-2.10775 -4.349613,0 L 86.095703,223.99805 H 41.904297 L 28.595703,183.04102 c -0.342238,-1.05388 -1.257334,-1.58015 -2.173828,-1.58008 z"/>
  <path id="Fill-4" d="m 63.999971,289.99995 v 0 L 86.095314,221.99787 H 41.904627 Z" style="fill:#e01b24;fill-rule:evenodd"/>
  <path id="Fill-8" d="M 63.999971,289.99983 41.904627,221.99775 H 10.938552 Z" style="fill:#ff7800;fill-rule:evenodd"/>
  <path id="Fill-12" d="m 10.938609,221.99792 v 0 l -6.7143763,20.66521 c -0.612425,1.88474 0.05833,3.9496 1.661726,5.11441 L 64.000028,290 Z" style="fill:#f5c211;fill-rule:evenodd"/>
  <path id="Fill-16" d="M 10.938609,221.99798 H 41.904684 L 28.596586,181.04097 c -0.684476,-2.10775 -3.665975,-2.10718 -4.35045,0 z" style="fill:#e01b24;fill-rule:evenodd"/>
  <path id="Fill-18" d="M 63.999971,289.99983 86.095314,221.99775 H 117.06139 Z" style="fill:#ff7800;fill-rule:evenodd"/>
  <path id="Fill-20" d="m 117.06139,221.99792 v 0 l 6.71438,20.66521 c 0.61242,1.88474 -0.0583,3.9496 -1.66173,5.11441 L 63.999971,290 Z" style="fill:#f5c211;fill-rule:evenodd"/>
  <path id="Fill-22" d="M 117.06139,221.99798 H 86.095314 l 13.308099,-40.95701 c 0.684477,-2.10775 3.665977,-2.10718 4.350447,0 z" style="fill:#e01b24;fill-rule:evenodd"/>
 </g>
</svg>
